X:1
T:Title
L:1/8
Q:1/4=110
M:4/4
K:Ab
V:1 treble nm="Church Organ, Staff"
V:1
 E2 F4 c2 | E2 F4 c2 | f2 ec AE c2 | B2 A6 | A2 G2- G/ z/ A B2 | f2 f2- f/ z/ e c2 | A2 B2 B2 d2 | %7
w: By~George~Edgar~Oliver * *|||||||
 d2 c6 | c2 c2- c/ z/ B A2 | e2 e2- e/ z/ d d2 | d2 d2- d/ z/ c F2 | c2 B6 | A2 A2- A/ z/ G A2 | %13
w: ||||||
 F2 E2 e2 c2 | A2 B2 Fd c2- | cB A6 |] %16
w: |||

